X:1
T: My Lord Byron's Maggot
N:1 December 1998
C:
S:
A:
O:
R:
M:6/8
K:G
I:speed 160
%W:  A1
% voice 1 (1 lines, 23 notes)
K:G
M:6/8
L:1/16
A2 |A2 F2 A2 A2 F2 A2 A2 F2 A2 A4 d2 d2 A2 d2 d2 A2 d2 d2 A2 d2 d4 d2 |
%W:
% voice 1 (1 lines, 20 notes)
f2 g2 a2 e2 f2 g2 f2 g2 a2 e2 f2 g2 f2 g2 a2 a4 ^g2 a6 a4 A2 |
%W:  A2
% voice 1 (1 lines, 22 notes)
A2 F2 A2 A2 F2 A2 A2 F2 A2 A4 d2 d2 A2 d2 d2 A2 d2 d2 A2 d2 d4 d2 |
%W:
% voice 1 (1 lines, 19 notes)
f2 g2 a2 e2 f2 g2 f2 g2 a2 e2 f2 g2 f2 g2 a2 a4 ^g2 a6 a6 |
%W:  B
% voice 1 (1 lines, 23 notes)
f2 d2 d2 g2 e2 e2 f2 d2 d2 g2 e2 e2 f2 d2 d2 g3 a g f e6 e4 f g |
%W:
% voice 1 (1 lines, 16 notes)
a4 z2 g4 z2 f4 z2 e4 z2 f4 z2 g4 z2 f4 z2 e4 A2 |
%W:         C
% voice 1 (1 lines, 21 notes)
f g a2 d2 e2 A2 a2 f g a2 d2 e2 A2 a2 f3 e d2 e2 e4 d6 d6 ||
